X: 37377
T: Sleeping Pilgrim, The
R: jig
M: 6/8
K: Dmixolydian
|:FGF FGA|.BAG FGF|FGF FGA|1 .dcB AGF:|2 .dcB dAF||
|:fgf efe|d2B AGF|1 fgf efe|d2B ABc:|2 ded BGA|BAG FED||
|:FGF FGA|.BAG FGF|FGF FGA|.dcB AGF:|D6|

